X:1
T:Title
%%score 1 { 2 | 3 }
L:1/8
Q:1/4=92
M:4/4
K:D
V:1 treble nm="Voice"
V:2 treble nm="Piano"
V:3 bass 
V:1
"^Andante espressivo" z8 | z8 | z8 | z8 |:!mp! B3 B d3 d | f2- (3f f e (3:2:2d2 d (3:2:2c2 d | %6
 e4 A2 z2 | (3z!pp!!<(! d c (3B ^A B d3!<)! f |!f! f4- f2 z2 | %9
!mp!!<(! (3:2:2c2 d (3:2:2e2 f!<)!!mf!!>(! (3:2:2g2 e (3:2:2c2 B!>)! | B2- (3B!p! d B f2- (3f f e | %11
 d4 B2 z2 | B3 B d3 d | f2- (3f f e (3:2:2d2 d (3:2:2c2 d | e4 A2 z2 | %15
 (3z!p!!<(! d c (3B ^A B!<)!!mp! d3 f | f4- f2 z2 | %17
!mp!!<(! (3:2:2c2 d (3:2:2e2 f!<)!!mf!!>(! (3:2:2g2 e (3:2:2c2 B!>)! | %18
 B2-!p! (3B d B!<(! f2- (3f f!<)! e | d4 B2 z2 |!f! B3 B d3 d | f2- (3f f e (3:2:2d2 d (3:2:2c2 d | %22
 e4 A2 z2 | (3z d c (3B ^A B d3 f | f4- f2 z2 | (3:2:2c2 d (3:2:2e2 f (3:2:2g2 e (3:2:2c2 B | %26
 B2- (3B d B f2- (3f f e | d4 B2 z2 | B3 B d3 d | f2- (3f f e (3:2:2d2 d (3:2:2c2 d | e4 A2 z2 | %31
 (3z d c (3B ^A B d3 f | f4- f2 z2 | (3:2:2c2 d (3:2:2e2 f (3:2:2g2 e (3:2:2c2 B | %34
 B2- (3B d B f2- (3f f e | d4 B2 z2 | z8 | z8 | z8 | z8 | z8 | z8 | z8 | z8 | z8 | z8 | z8 | z8 | %48
 z8 | z8 | z8 | z8 | B3 B d3 d | f2- (3f f e (3:2:2d2 d (3:2:2c2 d | e4 A2 z2 | %55
 (3z d c (3B ^A B d3 f | f4- f2 z2 | (3:2:2c2 d (3:2:2e2 f (3:2:2g2 e (3:2:2c2 B | %58
 B2- (3B d B f2- (3f f e | d4 B2 z2 | B3 B d3 d | f2- (3f f e (3:2:2d2 d (3:2:2c2 d | e4 A2 z2 | %63
 (3z d c (3B ^A B d3 f | f4- f2 z2 | %65
V:2
!p! (3z (FA (3FDB, (3z C^E (3GCB,) | (3z (B,D (3GDB,) (3z (^A,E (3GCA,) | %2
!pp! (3z (F,B, (3DB,F,) (3z (B,D (3FDB,) | (3z (F,B, (3DB,F,) (3z (B,D (3FDB,) |: %4
!p! (3z (B,D (3GDB,) (3z (DG (3BGD) | (3z (FA (3dAF) (3z (DF (3AFD) | %6
 (3z (CG (3AGC) (3z (CG (3AGC) | (3z (DF (3BFD) (3z (B,D (3FDB,) | %8
 (3z (^A,C (3FCA,) (3z (A,C (3FCA,) | (3z (^A,C (3ECA,) (3z (A,C (3ECA,) | %10
 (3z (B,D (3FDB,) (3z (^A,E (3GEA,) | (3z (B,D (3FDB,) (3z (B,D (3FDB,) | %12
 (3z (B,D (3GDB,) (3z (DG (3BGD) | (3z (FA (3dAF) (3z (DF (3AFD) | (3z (CG (3AGC) (3z (CG (3AGC) | %15
 (3z (DF (3BFD) (3z (B,D (3FDB,) | (3z (^A,C (3FCA,) (3z (A,C (3FCA,) | %17
 (3z (^A,C (3ECA,) (3z (A,C (3ECA,) | (3z (B,D (3FDB,) (3z (^A,E (3GEA,) | %19
 (3z (B,D (3FDB,) (3z (B,D (3FDB,) |!mf! (3z (B,D (3GDB,) (3z (DG (3BGD) | %21
 (3z (FA (3dAF) (3z (DF (3AFD) | (3z (CG (3AGC) (3z (CG (3AGC) | (3z (DF (3BFD) (3z (B,D (3FDB,) | %24
 (3z (^A,C (3FCA,) (3z (A,C (3FCA,) | (3z (^A,C (3ECA,) (3z (A,C (3ECA,) | %26
 (3z (B,D (3FDB,) (3z (^A,E (3GEA,) | (3z (B,D (3FDB,) (3z (B,D (3FDB,) | %28
 (3z (B,D (3GDB,) (3z (DG (3BGD) | (3z (FA (3dAF) (3z (DF (3AFD) | (3z (CG (3AGC) (3z (CG (3AGC) | %31
 (3z (DF (3BFD) (3z (B,D (3FDB,) | (3z (^A,C (3FCA,) (3z (A,C (3FCA,) | %33
 (3z (^A,C (3ECA,) (3z (A,C (3ECA,) | (3z (B,D (3FDB,) (3z (^A,E (3GEA,) | %35
 (3z (B,D (3FDB,) (3z (B,D (3FDB,) | (3z (B,D (3GDB,) (3z (DG (3BGD) | %37
 (3z (FA (3dAF) (3z (DF (3AFD) | (3z (CG (3AGC) (3z (CG (3AGC) | (3z (DF (3BFD) (3(B,DF (3BFD) | %40
 (3z (^A,C (3FCA,) (3z (A,C (3FCA,) | (3z (^A,C (3ECA,) (3z (A,C (3ECA,) | %42
 (3z (B,D (3FDB,) (3z (^A,E (3GEA,) | (3z (B,D (3FDB,) (3z (B,D (3FDB,) | %44
 (3z (B,D (3GDB,) (3z (DG (3BGD) | (3z (FA (3dAF) (3z (DF (3AFD) | (3z (CG (3AGC) (3z (CG (3AGC) | %47
 (3z (DF (3BFD) (3(B,DF (3BFD) | (3z (^A,C (3FCA,) (3z (A,C (3FCA,) | %49
 (3z (^A,C (3ECA,) (3z (A,C (3ECA,) | (3z (B,D (3FDB,) (3z (^A,E (3GEA,) | %51
 (3z (B,D (3FDB,) (3z (B,D (3FDB,) | (3z (B,D (3GDB,) (3z (DG (3BGD) | %53
 (3z (FA (3dAF) (3z (DF (3AFD) | (3z (CG (3AGC) (3z (CG (3AGC) | (3z (DF (3BFD) (3z (B,D (3FDB,) | %56
 (3z (^A,C (3FCA,) (3z (A,C (3FCA,) | (3z (^A,C (3ECA,) (3z (A,C (3ECA,) | %58
 (3z (B,D (3FDB,) (3z (^A,E (3GEA,) | (3z (B,D (3FDB,) (3z (B,D (3FDB,) | %60
 (3z (B,D (3GDB,) (3z (DG (3BGD) | (3z (FA (3dAF) (3z (DF (3AFD) | (3z (CG (3AGC) (3z (CG (3AGC) | %63
 (3z (DF (3BFD) (3z (B,D (3FDB,) | (3z (^A,C (3FCA,) (3z (A,C (3FCA,) | %65
V:3
 (D,4 G,4 | D,4 F,,4) | (B,,4 F,,4 | B,,,4- B,,,) z!f! (3:2:2B,,2 A,, |: G,,4 G,,4 | (D,,4 A,,4) | %6
 (E,,4 A,,4) | (B,,4 D,4) | (C,4 F,4) | (C,4 F,,4) | (B,,4 F,,4 | B,,,4) z2 (3:2:2B,,2 A,, | %12
 G,,4 G,,4 | (D,,4 A,,4) | (E,,4 A,,4) | (B,,4 D,4) | (C,4 F,4) | (C,4 F,,4) | (B,,4 F,,4 | %19
 B,,,4) z2!f! (3:2:2B,,2 ^A,, | [G,,G,]4 [G,,G,]4 | (D,4 [A,,A,]4) | (E,4 A,,4) | (B,,4 D,4) | %24
 (C,4 F,4) | (C,4 F,,4) | (B,,4 F,,4 | B,,,4) z2!f! (3:2:2B,,2 ^A,, | [G,,G,]4 [G,,G,]4 | %29
 (D,4 [A,,A,]4) | (E,4 A,,4) | (B,,4 D,4) | (C,4 F,4) | (C,4 F,,4) | (B,,4 F,,4 | %35
 B,,,4) z2 (3:2:2B,,2 A,, | ([G,,G,]4 [G,,G,]4 | (D,4 [A,,A,]4)) | (E,4 A,,4) | (B,,4 D,4) | %40
 (C,4 F,4) | (C,4 F,,4) | (B,,4 F,,4 | B,,,4) z2 (3:2:2B,,2 A,, | (G,,4 G,,4 | (D,4 A,,4)) | %46
 (E,4 A,,4) | (B,,4 D,4) | (C,4 F,4) | (C,4 F,,4) | (B,,4 F,,4 | B,,,4) z2 (3:2:2B,,2 ^A,, | %52
 [G,,G,]4 [G,,G,]4 | (D,4 [A,,A,]4) | (E,4 A,,4) | (B,,4 D,4) | (C,4 F,4) | (C,4 F,,4) | %58
 (B,,4 F,,4 | B,,,4) z2 (3:2:2B,,2 A,, | [G,,G,]4 [G,,G,]4 | (D,4 [A,,A,]4) | (E,4 A,,4) | %63
 (B,,4 D,4) | (C,4 F,4) | %65

